proprietary/assets/icons/gebruiksvoorwerpen/verhuisdoos.svg

<svg height="64" viewBox="0 0 64 64" width="64" xmlns="http://www.w3.org/2000/svg"><path d="m0 0h64v64h-64z" fill="none"/><path d="m57.6462 26.8376-7.1137-13.3189c-.233-.4363-.6195-.7708-1.0847-.9388l-15.4478-5.5799 2.2573 15.8013c4.4817 1.2274 17.1561 4.6995 17.4471 4.7928.3536.1134.3019.3432.2787.4059h-43.9662c-.0233-.0627-.075-.2925.2787-.4059.291-.0934 12.9654-3.5654 17.4471-4.7928l2.2573-15.8013-15.4478 5.5799c-.4652.168-.8517.5025-1.0847.9388l-7.1137 13.3189c-.2323.4349-.3538.9203-.3538 1.4134v24.624c0 .5523.4477 1 1 1h50c.5523 0 1-.4477 1-1v-24.624c0-.4931-.1215-.9785-.3538-1.4134zm-31.1462 7.1624 4 5h-2.5v5h-3v-5h-2.5zm13.5 14h-17v-2h17zm-2-9v5h-3v-5h-2.5l4-5 4 5z"/></svg>

<?xml version="1.0" encoding="utf-8"?>
<!-- Generator: Adobe Illustrator 17.1.0, SVG Export Plug-In . SVG Version: 6.00 Build 0)  -->
<svg version="1.2" baseProfile="tiny" xmlns="http://www.w3.org/2000/svg" xmlns:xlink="http://www.w3.org/1999/xlink" x="0px"
	 y="0px" width="64px" height="64px" viewBox="0 0 64 64" xml:space="preserve">
<g id="_x36_4px_Boxes">
	<rect fill="none" width="64" height="64"/>
</g>
<g id="Label">
</g>
<g id="Production">
	<path d="M57.6462,26.8376l-7.1137-13.3189c-0.233-0.4363-0.6195-0.7708-1.0847-0.9388L34,7l2.2573,15.8013
		c4.4817,1.2274,17.1561,4.6995,17.4471,4.7928c0.3536,0.1134,0.3019,0.3432,0.2787,0.4059H10.0169
		c-0.0233-0.0627-0.075-0.2925,0.2787-0.4059c0.291-0.0934,12.9654-3.5654,17.4471-4.7928L30,7l-15.4478,5.5799
		c-0.4652,0.168-0.8517,0.5025-1.0847,0.9388L6.3538,26.8376C6.1215,27.2725,6,27.7579,6,28.251v24.624c0,0.5523,0.4477,1,1,1h50
		c0.5523,0,1-0.4477,1-1V28.251C58,27.7579,57.8785,27.2725,57.6462,26.8376z M26.5,34l4,5H28v5h-3v-5h-2.5L26.5,34z M40,48H23v-2
		h17V48z M38,39v5h-3v-5h-2.5l4-5l4,5H38z"/>
</g>
</svg>
